!!! OTL: Literature78
!!! Chapter: 5
!!! Section: II
!!! Page: 362
!!! Mode: 
!!! Encoder: ESM
**kern
*staff1
*I"Piano
=1-
*clefG2
*k[b-e-a-]
*E-:
*M6/8
4.r
4r
8b-\
=2
8g/L
8b-/
8d/J
4e-/
8e-/
=3
4cc\
32cc/LLL
32b-/
32a-/
32g/JJJ
8f/
8r
8a-/
=4
8f/L
8a-/
8d/J
8.b-/L
16cc/L
32b-/L
32a-/
32g/
32f/JJJ
=5
4e-/
16.f/LL
32g/JJk
8e-/
8r
8b-\
=6
8g/L
8b-/
8d/J
4e-/
8e-/
=7
!!linebreak:original
4cc\
32cc/LLL
32b-/
32a-/
32g/JJJ
8f/
8r
8a-/
=8
8f/L
8a-/
8d/J
8.b-/L
16cc/L
32b-/L
32a-/
32g/
32f/JJJ
=9
4e-/
16.f/LL
32g/JJk
8e-/
8r
8r
==
*-
